X:1
T:THE WEARING OF THE GREEN
M:C
L:1/8
Q:80
C:Traditional
S:March
K:HP
|: {g}A3/2B/2|
{GdG}c2{gcd}c{e}B{gcd}ce{A}ec|
{gcd}c{e}B{gBd}B{e}A{gBd}B2{gcd}ce|  !
{gfg}fd{ag}ag{a}fe{gcd}c{e}A|
{gBd}B{e}A{GAG}AB{G}A2:| [|
{ag}ag|  !
{a}fe{gef}ec{gef}e3/2c/2{g}A3/2B/2|
{gcd}cB{gcd}cd{gef}e2{ag}a3/2g/2|
{a}fe{gef}ec{gef}e3/2c/2{g}A3/2B/2|  !
{gcd}c{e}B{gBd}B{d}c{gBd}B2{g}AB|
{GdG}c2{gcd}c{e}B{gcd}ce{A}ec|
{gcd}c{e}B{gBd}B{e}A{gBd}B2{gcd}ce|  !
{gfg}fd{ag}ag{a}fe{gcd}c{e}A|
{gBd}B{e}A{GAG}AB{G}A2|]

